Resources/Icons/instrument.svg

<svg version="1.1" xmlns="http://www.w3.org/2000/svg" width="744.09448819" height="1052.3622047">
  <g id="layer1">
    <path
       style="fill:#000000"
       d="M 371.90625 383.875 C 370.93534 383.88839 369.9307 383.93889 368.875 384 C 348.64136 385.17131 346.57096 390.34152 329.40625 483.28125 C 315.81467 556.87402 314.9047 560.77561 311.0625 562.25 C 306.00986 564.18888 305.68518 556.38125 309.9375 536 C 316.04656 506.71947 315.99308 503.33128 309.375 492.78125 C 300.1437 478.06544 300.37555 478.53636 300.28125 472.3125 C 300.19337 466.51187 297.08959 460.65822 294.21875 460.84375 C 293.74291 460.87451 279.39375 469.99491 262.34375 481.125 L 231.34375 501.375 L 231.34375 506.25 L 231.34375 511.125 L 237.125 512.4375 C 252.85037 516.00892 254.60824 519.92189 251.34375 543.78125 C 245.90014 583.56731 256.52973 605.43945 284.625 612.25 C 316.49354 619.97522 342.29668 605.2928 350.3125 574.90625 L 351.6875 569.71875 L 347.75 568.125 C 334.77272 562.93252 337.71398 545.50768 351.84375 543.8125 C 356.80398 543.21741 356.50887 543.81534 358.25 530.03125 C 358.82169 525.50527 358.69152 524.68282 357.15625 524.1875 C 351.4233 522.3379 349.68285 521.23766 347.875 518.3125 C 342.62323 509.81496 349.03772 498.78125 359.25 498.78125 C 361.95925 498.78125 362.35641 497.9676 363.3125 490.28125 C 363.65456 487.53125 364.18257 484.08428 364.46875 482.625 C 364.92491 480.29895 364.52823 479.83253 361.4375 478.8125 C 347.89574 474.34331 350.30619 456.02269 364.6875 454.09375 C 367.0729 453.7738 368.84375 453.00292 368.84375 452.28125 C 368.84375 448.70508 372.84562 421.90835 373.71875 419.625 C 376.71355 411.79319 380.69438 414.94409 384.3125 428 C 387.07529 437.96949 393.11471 440.77225 411.875 440.78125 C 437.21227 440.79352 450.8958 432.12598 435.34375 425.90625 C 426.02211 422.17825 420.55494 421.92735 417.5625 425.15625 C 410.26253 433.03305 400.66393 424.97438 396.28125 407.28125 C 391.77191 389.07681 386.46984 383.67412 371.90625 383.875 z M 369.875 455.03125 C 369.50302 455.0154 369.16437 455.14277 368.90625 455.4375 C 367.96297 456.51458 364.8057 477.88398 365.4375 478.90625 C 367.89803 482.88747 377.34375 473.16826 377.34375 466.65625 C 377.34375 462.19365 372.47886 455.14221 369.875 455.03125 z M 362.5 499.8125 C 362.09294 499.85034 361.84375 500.1386 361.84375 500.71875 C 361.84375 501.89037 360.02186 516.20529 359.3125 520.53125 C 358.85402 523.32727 359.05387 523.78125 360.84375 523.78125 C 369.81866 523.78125 374.26339 509.98214 367.46875 503.1875 C 365.1835 500.90225 363.39552 499.72924 362.5 499.8125 z M 197.84375 543.0625 L 219.28125 543.0625 L 197.84375 543.0625 z M 357.75 544.90625 C 357.44948 544.95561 357.18963 545.12884 356.9375 545.40625 C 356.07865 546.35121 352.84375 563.14094 352.84375 566.6875 C 352.84375 572.17957 363.26546 565.46624 364.4375 559.21875 C 365.43692 553.89136 360.65502 544.42907 357.75 544.90625 z "
       id="path6329" />
  </g>
</svg>

<svg version="1.1" xmlns="http://www.w3.org/2000/svg" width="744.094" height="1052.362"><path d="M371.906 383.875c-.97.013-1.975.064-3.031.125-20.234 1.171-22.304 6.342-39.469 99.281-13.591 73.593-14.501 77.495-18.344 78.969-5.052 1.939-5.377-5.869-1.125-26.25 6.11-29.28 6.056-32.669-.562-43.219-9.231-14.716-9-14.245-9.094-20.469-.088-5.8-3.191-11.654-6.062-11.468-.476.03-14.825 9.15-31.875 20.281l-31 20.25v9.75l5.781 1.313c15.725 3.57 17.483 7.484 14.219 31.343-5.444 39.786 5.186 61.658 33.281 68.469 31.869 7.725 57.672-6.957 65.688-37.344l1.375-5.187-3.938-1.594c-12.977-5.192-10.036-22.617 4.094-24.313 4.96-.595 4.665.003 6.406-13.78.572-4.527.442-5.35-1.094-5.845-5.733-1.85-7.473-2.95-9.281-5.875-5.252-8.497 1.163-19.53 11.375-19.53 2.71 0 3.106-.814 4.063-8.5.342-2.75.87-6.198 1.156-7.657.456-2.326.06-2.792-3.031-3.813-13.542-4.469-11.132-22.79 3.25-24.718 2.385-.32 4.156-1.091 4.156-1.813 0-3.576 4.002-30.373 4.875-32.656 2.995-7.832 6.975-4.68 10.594 8.375 2.762 9.97 8.802 12.772 27.562 12.781 25.337.013 39.02-8.655 23.469-14.875-9.322-3.728-14.79-3.979-17.781-.75-7.3 7.877-16.9-.182-21.282-17.875-4.51-18.204-9.811-23.607-24.375-23.406zm-2.031 71.156a1.175 1.175 0 0 0-.969.406c-.943 1.078-4.1 22.447-3.469 23.47 2.461 3.98 11.907-5.739 11.907-12.25 0-4.463-4.865-11.515-7.469-11.626zm-7.375 44.781c-.407.038-.656.327-.656.907 0 1.171-1.822 15.486-2.531 19.812-.459 2.796-.26 3.25 1.53 3.25 8.976 0 13.42-13.799 6.626-20.593-2.286-2.286-4.073-3.459-4.969-3.375zm-164.656 43.25h21.437-21.437zm159.906 1.844c-.3.05-.56.223-.813.5-.858.945-4.093 17.735-4.093 21.282 0 5.492 10.421-1.222 11.594-7.47.999-5.327-3.783-14.789-6.688-14.312z" fill="#000"/></svg>
